resources/svg/dropper-o.svg

<svg xmlns="http://www.w3.org/2000/svg" viewBox="0 0 15 15" fill="none"><path d="M0.5 12.5L0.146447 12.1465L0 12.2929V12.5H0.5ZM8 5L8.35355 4.64645C8.15829 4.45119 7.84171 4.45119 7.64645 4.64645L8 5ZM10 7L10.3536 7.35356C10.5488 7.1583 10.5488 6.84171 10.3536 6.64645L10 7ZM2.5 14.5V15H2.70711L2.85355 14.8536L2.5 14.5ZM0.5 14.5H0C0 14.7761 0.223858 15 0.5 15L0.5 14.5ZM7.5 4.5L7.14645 4.14645L6.79289 4.5L7.14645 4.85356L7.5 4.5ZM10.5858 1.41422L10.2322 1.06066L10.5858 1.41422ZM13.4142 1.41422L13.0607 1.76777L13.0607 1.76777L13.4142 1.41422ZM13.5858 1.58579L13.9393 1.23224L13.9393 1.23224L13.5858 1.58579ZM13.5858 4.41422L13.2322 4.06066L13.5858 4.41422ZM10.5 7.5L10.1464 7.85356L10.5 8.20711L10.8536 7.85356L10.5 7.5ZM0.853553 12.8536L8.35355 5.35356L7.64645 4.64645L0.146447 12.1465L0.853553 12.8536ZM7.64645 5.35356L9.64645 7.35356L10.3536 6.64645L8.35355 4.64645L7.64645 5.35356ZM9.64645 6.64645L2.14645 14.1465L2.85355 14.8536L10.3536 7.35356L9.64645 6.64645ZM2.5 14H0.5V15H2.5V14ZM1 14.5V12.5H0V14.5H1ZM6.14645 3.85356L11.1464 8.85356L11.8536 8.14645L6.85355 3.14645L6.14645 3.85356ZM7.85355 4.85356L10.9393 1.76777L10.2322 1.06066L7.14645 4.14645L7.85355 4.85356ZM13.0607 1.76777L13.2322 1.93934L13.9393 1.23224L13.7678 1.06066L13.0607 1.76777ZM13.2322 4.06066L10.1464 7.14645L10.8536 7.85356L13.9393 4.76777L13.2322 4.06066ZM10.8536 7.14645L7.85355 4.14645L7.14645 4.85356L10.1464 7.85356L10.8536 7.14645ZM13.2322 1.93934C13.818 2.52513 13.818 3.47488 13.2322 4.06066L13.9393 4.76777C14.9157 3.79146 14.9156 2.20855 13.9393 1.23224L13.2322 1.93934ZM10.9393 1.76777C11.5251 1.18198 12.4749 1.18198 13.0607 1.76777L13.7678 1.06066C12.7915 0.0843534 11.2085 0.0843515 10.2322 1.06066L10.9393 1.76777Z" fill="black"/></svg>

<svg xmlns="http://www.w3.org/2000/svg" viewBox="0 0 15 15" fill="none"><path d="M.5 12.5l-.354-.354-.146.147v.207h.5zM8 5l.354-.354a.5.5 0 00-.708 0L8 5zm2 2l.354.354a.5.5 0 000-.708L10 7zm-7.5 7.5v.5h.207l.147-.146L2.5 14.5zm-2 0H0a.5.5 0 00.5.5v-.5zm7-10l-.354-.354-.353.354.353.354L7.5 4.5zm3.086-3.086l-.354-.353.354.353zm2.828 0l-.353.354.353-.354zm.172.172l.353-.354-.353.354zm0 2.828l-.354-.353.354.353zM10.5 7.5l-.354.354.354.353.354-.353L10.5 7.5zM.854 12.854l7.5-7.5-.708-.708-7.5 7.5.708.708zm6.792-7.5l2 2 .708-.708-2-2-.708.708zm2 1.292l-7.5 7.5.708.708 7.5-7.5-.708-.708zM2.5 14h-2v1h2v-1zm-1.5.5v-2H0v2h1zM6.146 3.854l5 5 .708-.708-5-5-.708.708zm1.708 1l3.085-3.086-.707-.707-3.086 3.085.708.708zm5.207-3.086l.171.171.707-.707-.171-.171-.707.707zm.171 2.293l-3.086 3.085.708.708 3.085-3.086-.707-.707zm-2.378 3.085l-3-3-.708.708 3 3 .708-.708zm2.378-5.207a1.5 1.5 0 010 2.122l.707.707a2.5 2.5 0 000-3.536l-.707.707zm-2.293-.171a1.5 1.5 0 012.122 0l.707-.707a2.5 2.5 0 00-3.536 0l.707.707z" fill="currentColor"/></svg>
